X:16001
T:Peacock Rag
R:Rag
C:Trad.
N:As played by Gus Vandergriff
O:USA
Z:Paul Hardy's Possible Tunebook 2022 (see www.paulhardy.net). Creative Commons cc by-nc-sa licenced.
M:4/4
L:1/8
Q:1/4=140
K:D
F2G2^G2|"D"A2f2 -fed2|A4 ^G2A2|"G"B2g2 -gfe2|"E7"B4 e2d2|
"A7"c2a2 -aege|f2e2 B2c2|1"D"dcdf -"G"fdB2|"A7"A2:|2"D"dcdf -"A7"fce2|"D"d2a2 a2_b2||
|:"B7"b2ba bab2|a4 g2f2|"E7"e2ef ^gbgf|e6d2|
"A7"c2a2 -aege|f2e2 B2c2|1"D"dcdf -"G"fdB2|"A"A2a2 a2_b2:||2"D"dcdf -"A7"fce2|"D"d2|]

